X:93
T:Nuit Sauvage
C:Michel Bordeleau
Z:robin.beech@mcgill.ca
M:2/4
L:1/16
K:Dmin
d3c | =BdA^F GD=B,D | fefa g2ga | (3bag af gedg | edcA dcdc |
=BdA^F GD=B,D | fefa g2ga | (3bag af gedg |1 edcA d3c :|2 edcA d3e |:
fefa gecd | edcA GcAF | D2fa gecd | eddc d2de |
fefa gecd | edcA GcAF | D2fa gecd |1 eddc d2e :|2 eddc d3A |:
B2fB BgBB | afdf edcA | B2fB BgBB | afdf [c3e3]A |
B2fB BgBB | afdf edcA | aeab aedg |1 edcA d2dA :|2 edcA d3c :|
